devices/32/drive-harddisk.svg

<?xml version="1.0" encoding="UTF-8" standalone="no"?>
<!-- Created with Inkscape (http://www.inkscape.org/) -->

<svg
   xmlns:svg="http://www.w3.org/2000/svg"
   xmlns="http://www.w3.org/2000/svg"
   xmlns:xlink="http://www.w3.org/1999/xlink"
   version="1.0"
   width="32"
   height="32"
   id="svg3786">
  <defs
     id="defs3788">
    <linearGradient
       id="linearGradient5060">
      <stop
         id="stop5062"
         style="stop-color:black;stop-opacity:1"
         offset="0" />
      <stop
         id="stop5064"
         style="stop-color:black;stop-opacity:0"
         offset="1" />
    </linearGradient>
    <linearGradient
       id="linearGradient5048">
      <stop
         id="stop5050"
         style="stop-color:black;stop-opacity:0"
         offset="0" />
      <stop
         id="stop5056"
         style="stop-color:black;stop-opacity:1"
         offset="0.5" />
      <stop
         id="stop5052"
         style="stop-color:black;stop-opacity:0"
         offset="1" />
    </linearGradient>
    <linearGradient
       id="linearGradient2215">
      <stop
         id="stop2223"
         style="stop-color:#555556;stop-opacity:1"
         offset="0" />
      <stop
         id="stop2219"
         style="stop-color:#0c0c0d;stop-opacity:1"
         offset="1" />
    </linearGradient>
    <linearGradient
       id="linearGradient3484">
      <stop
         id="stop3486"
         style="stop-color:#9b9b9b;stop-opacity:1"
         offset="0" />
      <stop
         id="stop3488"
         style="stop-color:#b6b6b6;stop-opacity:1"
         offset="1" />
    </linearGradient>
    <linearGradient
       id="linearGradient7056">
      <stop
         id="stop7064"
         style="stop-color:#e1e1e2;stop-opacity:1"
         offset="0" />
      <stop
         id="stop7060"
         style="stop-color:#d2d2d3;stop-opacity:1"
         offset="1" />
    </linearGradient>
    <linearGradient
       id="linearGradient7056-300">
      <stop
         id="stop3597"
         style="stop-color:#cbcbcb;stop-opacity:1"
         offset="0" />
      <stop
         id="stop3599"
         style="stop-color:#bdbdbe;stop-opacity:1"
         offset="1" />
    </linearGradient>
    <linearGradient
       id="linearGradient3776">
      <stop
         id="stop3778"
         style="stop-color:#a0a0a1;stop-opacity:1"
         offset="0" />
      <stop
         id="stop3780"
         style="stop-color:#e0e0e1;stop-opacity:1"
         offset="1" />
    </linearGradient>
    <linearGradient
       x1="44.261497"
       y1="53.951618"
       x2="44.261497"
       y2="28.299864"
       id="linearGradient2451"
       xlink:href="#linearGradient3776"
       gradientUnits="userSpaceOnUse"
       gradientTransform="matrix(0.1381173,0,0,0.1380878,11.166668,13.39009)" />
    <linearGradient
       x1="35.341114"
       y1="37.03133"
       x2="35.341114"
       y2="13.899854"
       id="linearGradient2454"
       xlink:href="#linearGradient7056-300"
       gradientUnits="userSpaceOnUse"
       gradientTransform="matrix(0.7191514,0,0,0.6484696,-5.2790459,-0.0136322)" />
    <linearGradient
       x1="28.097086"
       y1="11.999853"
       x2="28.046757"
       y2="40.000149"
       id="linearGradient2459"
       xlink:href="#linearGradient7056"
       gradientUnits="userSpaceOnUse"
       gradientTransform="matrix(0.6874277,0,0,0.666667,-3.9352724,-0.8333435)" />
    <linearGradient
       x1="34.659508"
       y1="38.099998"
       x2="34.659508"
       y2="9.9298477"
       id="linearGradient2461"
       xlink:href="#linearGradient3484"
       gradientUnits="userSpaceOnUse"
       gradientTransform="matrix(0.6874548,0,0,0.6642584,-0.4986866,0.5245843)" />
    <linearGradient
       x1="29.9375"
       y1="41"
       x2="30"
       y2="49.999996"
       id="linearGradient2465"
       xlink:href="#linearGradient2215"
       gradientUnits="userSpaceOnUse"
       gradientTransform="matrix(0.6886478,0,0,0.5067185,-3.9708843,4.4552574)" />
    <linearGradient
       x1="302.85715"
       y1="366.64789"
       x2="302.85715"
       y2="609.50507"
       id="linearGradient2471"
       xlink:href="#linearGradient5048"
       gradientUnits="userSpaceOnUse"
       gradientTransform="matrix(0.07635654,0,0,0.02184879,1.4025717,30.138555)" />
    <radialGradient
       cx="605.71429"
       cy="486.64789"
       r="117.14286"
       fx="605.71429"
       fy="486.64789"
       id="radialGradient2473"
       xlink:href="#linearGradient5060"
       gradientUnits="userSpaceOnUse"
       gradientTransform="matrix(0.04484747,0,0,0.02184879,20.38888,30.138555)" />
    <radialGradient
       cx="605.71429"
       cy="486.64789"
       r="117.14286"
       fx="605.71429"
       fy="486.64789"
       id="radialGradient2475"
       xlink:href="#linearGradient5060"
       gradientUnits="userSpaceOnUse"
       gradientTransform="matrix(-0.04484747,0,0,0.02184879,37.61113,30.138555)" />
  </defs>
  <g
     transform="matrix(0.6666596,0,0,0.6259973,-3.3331284,3.7969778)"
     id="g6029"
     style="display:inline;enable-background:new">
    <rect
       width="36.869301"
       height="5.3061337"
       x="10.565332"
       y="38.149361"
       id="rect2723"
       style="opacity:0.40206185;fill:url(#linearGradient2471);fill-opacity:1;fill-rule:nonzero;stroke:none;stroke-width:0.5;marker:none;visibility:visible;display:inline;overflow:visible" />
    <path
       d="m 47.41667,38.149545 c 0,0 0,5.30584 0,5.30584 2.30953,0.01 5.58333,-1.18877 5.58333,-2.65326 0,-1.46449 -2.57726,-2.65258 -5.58333,-2.65258 z"
       id="path2725"
       style="opacity:0.40206185;fill:url(#radialGradient2473);fill-opacity:1;fill-rule:nonzero;stroke:none;stroke-width:0.5;marker:none;visibility:visible;display:inline;overflow:visible" />
    <path
       d="m 10.58333,38.149545 c 0,0 0,5.30584 0,5.30584 C 8.2737899,43.465375 5,42.266615 5,40.802125 c 0,-1.46449 2.5772699,-2.65258 5.58333,-2.65258 z"
       id="path2727"
       style="opacity:0.40206185;fill:url(#radialGradient2475);fill-opacity:1;fill-rule:nonzero;stroke:none;stroke-width:1;marker:none;visibility:visible;display:inline;overflow:visible" />
  </g>
  <path
     d="m 0.50764664,25.485779 30.98450536,0 -0.619526,4.050331 -29.6765863,0 -0.68839306,-4.050331 z"
     id="rect6431"
     style="fill:url(#linearGradient2465);fill-opacity:1;fill-rule:evenodd;stroke:#212122;stroke-width:0.92799884;stroke-linecap:round;stroke-linejoin:round;stroke-miterlimit:4;stroke-opacity:1;stroke-dasharray:none;stroke-dashoffset:0;display:inline;enable-background:new" />
  <rect
     width="30.935474"
     height="0.66425848"
     x="0.5324958"
     y="25.102152"
     id="rect6381"
     style="fill:#d2d2d3;fill-opacity:1;fill-rule:evenodd;stroke:none;display:inline;enable-background:new" />
  <path
     d="M 31.502339,25.502101 26.821023,8.3812814 C 26.688651,7.8937324 25.995252,7.4978971 25.412312,7.4978971 l -18.9855897,0 c -0.8955749,0 -1.4087718,0.1319037 -1.597617,0.8833843 L 0.49812296,25.485432"
     id="path6345"
     style="fill:url(#linearGradient2459);fill-opacity:1;fill-rule:nonzero;stroke:url(#linearGradient2461);stroke-width:0.99578333;stroke-linecap:round;stroke-linejoin:round;stroke-miterlimit:4;stroke-opacity:1;stroke-dasharray:none;stroke-dashoffset:0;marker:none;visibility:visible;display:inline;overflow:visible;enable-background:accumulate" />
  <path
     d="M 30.500001,25.507862 1.5000001,25.492138"
     id="path7046"
     style="opacity:0.4;fill:none;stroke:white;stroke-width:1.00000012;stroke-linecap:round;stroke-linejoin:miter;stroke-miterlimit:4;stroke-opacity:1;stroke-dasharray:none;stroke-dashoffset:0;marker:none;visibility:visible;display:inline;overflow:visible;enable-background:accumulate" />
  <path
     d="m 8.0000001,10 -1.9675676,1.037992 -0.8000001,3.35821 c -0.1206263,0.23082 -0.1945947,0.46238 -0.1945947,0.712347 0,0.01388 -4.026e-4,0.02688 0,0.04071 l -0.021622,0.101764 c 0.014504,4.91e-4 0.028817,-6.08e-4 0.043243,0 0.057729,0.558732 0.4291609,1.0751 1.0378376,1.506105 C 4.7923825,17.620125 4,18.688077 4,19.850747 4,22.698354 8.6379148,24.999999 14.356757,25 c 0.357427,0 0.711185,-0.0028 1.059459,-0.02035 l 9.945946,0 L 28,23.168251 24.778378,11.037992 22.767566,10 8.0000001,10 z"
     id="path6886"
     style="opacity:0.4;fill:white;fill-opacity:1;fill-rule:nonzero;stroke:none;stroke-width:0.8855623;marker:none;visibility:visible;display:inline;overflow:visible;enable-background:accumulate" />
  <path
     d="M 8.0000001,9 6.0324325,10.037991 5.2324324,13.3962 c -0.1206263,0.230821 -0.1945947,0.462381 -0.1945947,0.712348 0,0.01388 -4.026e-4,0.02688 0,0.0407 l -0.021622,0.101764 c 0.014504,4.93e-4 0.028817,-6.07e-4 0.043243,0 0.057729,0.558734 0.4291609,1.0751 1.0378376,1.506107 C 4.7923825,16.620126 4,17.688077 4,18.850747 4,21.698353 8.6379148,24 14.356757,24 c 0.357427,0 0.711185,-0.0028 1.059459,-0.02035 l 9.945946,0 L 28,22.16825 24.778378,10.037991 22.767566,9 8.0000001,9 z"
     id="path3783"
     style="fill:url(#linearGradient2454);fill-opacity:1;fill-rule:nonzero;stroke:none;stroke-width:0.8855623;marker:none;visibility:visible;display:inline;overflow:visible;enable-background:accumulate" />
  <path
     d="m 19,19 c 3.55e-4,0.828376 -1.342894,1.5 -3,1.5 -1.657106,0 -3.000355,-0.671624 -2.999999,-1.5 -3.56e-4,-0.828376 1.342893,-1.5 2.999999,-1.5 1.657106,0 3.000355,0.671624 3,1.5 z"
     id="path3492"
     style="fill:#d4d4d5;fill-opacity:1;fill-rule:nonzero;stroke:url(#linearGradient2451);stroke-width:1.00000012;stroke-linecap:round;stroke-linejoin:round;stroke-miterlimit:4;stroke-opacity:1;stroke-dasharray:none;stroke-dashoffset:0;marker:none;visibility:visible;display:inline;overflow:visible;enable-background:accumulate" />
</svg>

<?xml version="1.0" encoding="UTF-8" standalone="no"?>
<!-- Created with Inkscape (http://www.inkscape.org/) -->
<svg
   xmlns:svg="http://www.w3.org/2000/svg"
   xmlns="http://www.w3.org/2000/svg"
   xmlns:xlink="http://www.w3.org/1999/xlink"
   version="1.0"
   width="32"
   height="32"
   id="svg3786">
  <defs
     id="defs3788">
    <linearGradient
       id="linearGradient5060">
      <stop
         id="stop5062"
         style="stop-color:#000000;stop-opacity:1"
         offset="0" />
      <stop
         id="stop5064"
         style="stop-color:#000000;stop-opacity:0"
         offset="1" />
    </linearGradient>
    <linearGradient
       id="linearGradient5048">
      <stop
         id="stop5050"
         style="stop-color:#000000;stop-opacity:0"
         offset="0" />
      <stop
         id="stop5056"
         style="stop-color:#000000;stop-opacity:1"
         offset="0.5" />
      <stop
         id="stop5052"
         style="stop-color:#000000;stop-opacity:0"
         offset="1" />
    </linearGradient>
    <linearGradient
       id="linearGradient2215">
      <stop
         id="stop2223"
         style="stop-color:#555556;stop-opacity:1"
         offset="0" />
      <stop
         id="stop2219"
         style="stop-color:#0c0c0d;stop-opacity:1"
         offset="1" />
    </linearGradient>
    <linearGradient
       id="linearGradient3484">
      <stop
         id="stop3486"
         style="stop-color:#9b9b9b;stop-opacity:1"
         offset="0" />
      <stop
         id="stop3488"
         style="stop-color:#b6b6b6;stop-opacity:1"
         offset="1" />
    </linearGradient>
    <linearGradient
       id="linearGradient7056">
      <stop
         id="stop7064"
         style="stop-color:#e1e1e2;stop-opacity:1"
         offset="0" />
      <stop
         id="stop7060"
         style="stop-color:#d2d2d3;stop-opacity:1"
         offset="1" />
    </linearGradient>
    <linearGradient
       id="linearGradient7056-300">
      <stop
         id="stop3597"
         style="stop-color:#cbcbcb;stop-opacity:1"
         offset="0" />
      <stop
         id="stop3599"
         style="stop-color:#bdbdbe;stop-opacity:1"
         offset="1" />
    </linearGradient>
    <linearGradient
       id="linearGradient3776">
      <stop
         id="stop3778"
         style="stop-color:#a0a0a1;stop-opacity:1"
         offset="0" />
      <stop
         id="stop3780"
         style="stop-color:#e0e0e1;stop-opacity:1"
         offset="1" />
    </linearGradient>
    <linearGradient
       x1="44.261497"
       y1="53.951618"
       x2="44.261497"
       y2="28.299864"
       id="linearGradient2451"
       xlink:href="#linearGradient3776"
       gradientUnits="userSpaceOnUse"
       gradientTransform="matrix(0.1381173,0,0,0.1380878,11.166668,13.39009)" />
    <linearGradient
       x1="35.341114"
       y1="37.03133"
       x2="35.341114"
       y2="13.899854"
       id="linearGradient2454"
       xlink:href="#linearGradient7056-300"
       gradientUnits="userSpaceOnUse"
       gradientTransform="matrix(0.7191514,0,0,0.6484696,-5.2790459,-1.36322e-2)" />
    <linearGradient
       x1="28.097086"
       y1="11.999853"
       x2="28.046757"
       y2="40.000149"
       id="linearGradient2459"
       xlink:href="#linearGradient7056"
       gradientUnits="userSpaceOnUse"
       gradientTransform="matrix(0.6874277,0,0,0.666667,-3.9352724,-0.8333435)" />
    <linearGradient
       x1="34.659508"
       y1="38.099998"
       x2="34.659508"
       y2="9.9298477"
       id="linearGradient2461"
       xlink:href="#linearGradient3484"
       gradientUnits="userSpaceOnUse"
       gradientTransform="matrix(0.6874548,0,0,0.6642584,-0.4986866,0.5245843)" />
    <linearGradient
       x1="29.9375"
       y1="41"
       x2="30"
       y2="49.999996"
       id="linearGradient2465"
       xlink:href="#linearGradient2215"
       gradientUnits="userSpaceOnUse"
       gradientTransform="matrix(0.6886478,0,0,0.5067185,-3.9708843,4.4552574)" />
    <linearGradient
       x1="302.85715"
       y1="366.64789"
       x2="302.85715"
       y2="609.50507"
       id="linearGradient2471"
       xlink:href="#linearGradient5048"
       gradientUnits="userSpaceOnUse"
       gradientTransform="matrix(7.6356542e-2,0,0,2.1848787e-2,1.4025717,30.138555)" />
    <radialGradient
       cx="605.71429"
       cy="486.64789"
       r="117.14286"
       fx="605.71429"
       fy="486.64789"
       id="radialGradient2473"
       xlink:href="#linearGradient5060"
       gradientUnits="userSpaceOnUse"
       gradientTransform="matrix(4.4847472e-2,0,0,2.1848787e-2,20.38888,30.138555)" />
    <radialGradient
       cx="605.71429"
       cy="486.64789"
       r="117.14286"
       fx="605.71429"
       fy="486.64789"
       id="radialGradient2475"
       xlink:href="#linearGradient5060"
       gradientUnits="userSpaceOnUse"
       gradientTransform="matrix(-4.4847472e-2,0,0,2.1848787e-2,37.61113,30.138555)" />
  </defs>
  <g
     transform="matrix(0.6666596,0,0,0.6259973,-3.3331284,3.7969778)"
     id="g6029"
     style="display:inline;enable-background:new">
    <rect
       width="36.869301"
       height="5.3061337"
       x="10.565332"
       y="38.149361"
       id="rect2723"
       style="opacity:0.40206185;fill:url(#linearGradient2471);fill-opacity:1;fill-rule:nonzero;stroke:none;stroke-width:0.5;stroke-linecap:round;stroke-linejoin:miter;marker:none;marker-start:none;marker-mid:none;marker-end:none;stroke-miterlimit:3.42857146;stroke-dasharray:none;stroke-dashoffset:0;stroke-opacity:1;visibility:visible;display:inline;overflow:visible" />
    <path
       d="M 47.41667,38.149545 C 47.41667,38.149545 47.41667,43.455385 47.41667,43.455385 C 49.7262,43.465375 53,42.266615 53,40.802125 C 53,39.337635 50.42274,38.149545 47.41667,38.149545 z"
       id="path2725"
       style="opacity:0.40206185;fill:url(#radialGradient2473);fill-opacity:1;fill-rule:nonzero;stroke:none;stroke-width:0.5;stroke-linecap:round;stroke-linejoin:miter;marker:none;marker-start:none;marker-mid:none;marker-end:none;stroke-miterlimit:3.42857146;stroke-dasharray:none;stroke-dashoffset:0;stroke-opacity:1;visibility:visible;display:inline;overflow:visible" />
    <path
       d="M 10.58333,38.149545 C 10.58333,38.149545 10.58333,43.455385 10.58333,43.455385 C 8.2737899,43.465375 5,42.266615 5,40.802125 C 5,39.337635 7.5772699,38.149545 10.58333,38.149545 z"
       id="path2727"
       style="opacity:0.40206185;fill:url(#radialGradient2475);fill-opacity:1;fill-rule:nonzero;stroke:none;stroke-width:1;stroke-linecap:round;stroke-linejoin:miter;marker:none;marker-start:none;marker-mid:none;marker-end:none;stroke-miterlimit:4;stroke-dasharray:none;stroke-dashoffset:0;stroke-opacity:1;visibility:visible;display:inline;overflow:visible" />
  </g>
  <path
     d="M 0.50764664,25.485779 L 31.492152,25.485779 L 30.872626,29.53611 L 1.1960397,29.53611 L 0.50764664,25.485779 z"
     id="rect6431"
     style="fill:url(#linearGradient2465);fill-opacity:1;fill-rule:evenodd;stroke:#212122;stroke-width:0.92799884;stroke-linecap:round;stroke-linejoin:round;stroke-miterlimit:4;stroke-dasharray:none;stroke-dashoffset:0;stroke-opacity:1;display:inline;enable-background:new" />
  <rect
     width="30.935474"
     height="0.66425848"
     x="0.5324958"
     y="25.102152"
     id="rect6381"
     style="fill:#d2d2d3;fill-opacity:1;fill-rule:evenodd;stroke:none;stroke-width:0.99400002;stroke-linecap:butt;stroke-linejoin:miter;stroke-miterlimit:4;stroke-dasharray:none;stroke-dashoffset:0;stroke-opacity:1;display:inline;enable-background:new" />
  <path
     d="M 31.502339,25.502101 L 26.821023,8.3812814 C 26.688651,7.8937324 25.995252,7.4978971 25.412312,7.4978971 L 6.4267223,7.4978971 C 5.5311474,7.4978971 5.0179505,7.6298008 4.8291053,8.3812814 L 0.49812296,25.485432"
     id="path6345"
     style="fill:url(#linearGradient2459);fill-opacity:1;fill-rule:nonzero;stroke:url(#linearGradient2461);stroke-width:0.99578333;stroke-linecap:round;stroke-linejoin:round;marker:none;marker-start:none;marker-mid:none;marker-end:none;stroke-miterlimit:4;stroke-dasharray:none;stroke-dashoffset:0;stroke-opacity:1;visibility:visible;display:inline;overflow:visible;enable-background:accumulate" />
  <path
     d="M 30.500001,25.507862 L 1.5000001,25.492138"
     id="path7046"
     style="opacity:0.4;fill:none;fill-opacity:1;fill-rule:nonzero;stroke:#ffffff;stroke-width:1.00000012;stroke-linecap:round;stroke-linejoin:miter;marker:none;marker-start:none;marker-mid:none;marker-end:none;stroke-miterlimit:4;stroke-dasharray:none;stroke-dashoffset:0;stroke-opacity:1;visibility:visible;display:inline;overflow:visible;enable-background:accumulate" />
  <path
     d="M 8.0000001,10 L 6.0324325,11.037992 L 5.2324324,14.396202 C 5.1118061,14.627022 5.0378377,14.858582 5.0378377,15.108549 C 5.0378377,15.122428 5.0374351,15.135427 5.0378377,15.149254 L 5.0162162,15.251018 C 5.0307204,15.251509 5.0450331,15.25041 5.0594596,15.251018 C 5.1171883,15.80975 5.4886205,16.326118 6.0972972,16.757123 C 4.7923825,17.620125 4,18.688077 4,19.850747 C 4,22.698354 8.6379148,24.999999 14.356757,25 C 14.714184,25 15.067942,24.9972 15.416216,24.979647 L 25.362162,24.979647 L 28,23.168251 L 24.778378,11.037992 L 22.767566,10 L 8.0000001,10 z"
     id="path6886"
     style="opacity:0.4;fill:#ffffff;fill-opacity:1;fill-rule:nonzero;stroke:none;stroke-width:0.8855623;stroke-linecap:round;stroke-linejoin:round;marker:none;marker-start:none;marker-mid:none;marker-end:none;stroke-miterlimit:4;stroke-dasharray:none;stroke-dashoffset:0;stroke-opacity:1;visibility:visible;display:inline;overflow:visible;enable-background:accumulate" />
  <path
     d="M 8.0000001,9 L 6.0324325,10.037991 L 5.2324324,13.3962 C 5.1118061,13.627021 5.0378377,13.858581 5.0378377,14.108548 C 5.0378377,14.122427 5.0374351,14.135427 5.0378377,14.149253 L 5.0162162,14.251017 C 5.0307204,14.25151 5.0450331,14.25041 5.0594596,14.251017 C 5.1171883,14.809751 5.4886205,15.326117 6.0972972,15.757124 C 4.7923825,16.620126 4,17.688077 4,18.850747 C 4,21.698353 8.6379148,24 14.356757,24 C 14.714184,24 15.067942,23.997201 15.416216,23.979647 L 25.362162,23.979647 L 28,22.16825 L 24.778378,10.037991 L 22.767566,9 L 8.0000001,9 z"
     id="path3783"
     style="fill:url(#linearGradient2454);fill-opacity:1;fill-rule:nonzero;stroke:none;stroke-width:0.8855623;stroke-linecap:round;stroke-linejoin:round;marker:none;marker-start:none;marker-mid:none;marker-end:none;stroke-miterlimit:4;stroke-dasharray:none;stroke-dashoffset:0;stroke-opacity:1;visibility:visible;display:inline;overflow:visible;enable-background:accumulate" />
  <path
     d="M 19,19 C 19.000355,19.828376 17.657106,20.5 16,20.5 C 14.342894,20.5 12.999645,19.828376 13.000001,19 C 12.999645,18.171624 14.342894,17.5 16,17.5 C 17.657106,17.5 19.000355,18.171624 19,19 z"
     id="path3492"
     style="fill:#d4d4d5;fill-opacity:1;fill-rule:nonzero;stroke:url(#linearGradient2451);stroke-width:1.00000012;stroke-linecap:round;stroke-linejoin:round;marker:none;marker-start:none;marker-mid:none;marker-end:none;stroke-miterlimit:4;stroke-dasharray:none;stroke-dashoffset:0;stroke-opacity:1;visibility:visible;display:inline;overflow:visible;enable-background:accumulate" />
</svg>
